svgs/klwp.svg

<svg width="192" height="192" viewBox="0 0 192 192" fill="none" xmlns="http://www.w3.org/2000/svg">
<rect x="98" y="110" width="60" height="60" rx="8" stroke="black" stroke-width="12"/>
<path fill-rule="evenodd" clip-rule="evenodd" d="M42 16C36.4772 16 32 20.4771 32 26V166C32 171.523 36.4772 176 42 176H58C63.5228 176 68 171.523 68 166V26C68 20.4772 63.5228 16 58 16H42ZM44 164V28H56V164H44ZM130 16C115.641 16 104 27.6406 104 42V61.5147L76.5858 88.9289C72.6805 92.8342 72.6805 99.1658 76.5858 103.071L84.9852 111.47C86.234 107.447 88.6064 103.918 91.7357 101.25L86.4853 96L114.243 68.2426C115.368 67.1174 116 65.5913 116 64V42C116 34.9471 121.215 29.1122 128 28.1418V71.5147L107.757 91.7574C106.586 92.9289 106 94.4645 106 96H120.485L138.243 78.2426C139.368 77.1174 140 75.5913 140 74V26C140 20.4772 135.523 16 130 16Z" fill="black"/>
<path d="M98 154L122 130L134 142L142 134L158 150" stroke="black" stroke-width="12" stroke-linecap="round" stroke-linejoin="round"/>
</svg>

<svg xmlns="http://www.w3.org/2000/svg" width="192" height="192" fill="none" xmlns:v="https://vecta.io/nano"><rect x="98" y="110" width="60" height="60" rx="8" stroke="#000" stroke-width="12"/><path fill-rule="evenodd" d="M42 16c-5.523 0-10 4.477-10 10v140c0 5.523 4.477 10 10 10h16c5.523 0 10-4.477 10-10V26c0-5.523-4.477-10-10-10H42zm2 148V28h12v136H44zm86-148c-14.359 0-26 11.641-26 26v19.515L76.586 88.929a10 10 0 0 0 0 14.142l8.399 8.399c1.249-4.023 3.621-7.552 6.75-10.22L86.485 96l27.758-27.757A6 6 0 0 0 116 64V42c0-7.053 5.215-12.888 12-13.858v43.373l-20.243 20.243C106.586 92.929 106 94.465 106 96h14.485l17.758-17.757A6 6 0 0 0 140 74V26c0-5.523-4.477-10-10-10z" fill="#000"/><path d="M98 154l24-24 12 12 8-8 16 16" stroke="#000" stroke-width="12" stroke-linecap="round" stroke-linejoin="round"/></svg>
